X: 1
T:Miss Drummond of Perth
M:C
L:1/8
Q:80
C:Trad.
S:Strathspey
K:HP
|: {ag}a|
{AGAG}A2{gef}e3/2A/2{g}B/2c/2d{gef}e2|
{Gdc}d/2g3/2{Bd}B/2g3/2{Gdc}d/2g3/2{Bd}B/2{e}G3/2|  !
{gAGAG}A2{gef}e3/2A/2{g}B/2c/2d{g}e/2f/2g|
{ag}a3/2e/2{gf}g3/2B/2{gBd}B/2{e}A3/2{GAG}|1 A/2|2 A:| [|
e/2|  !
{ag}a2{ef}e3/2a/2{cd}c/2a3/2{ef}e3/2f/2|
{gf}g2{Gdc}d/2g3/2{Bd}B/2g3/2{Gdc}d3/2e/2|
{ag}a2{ef}e3/2a/2{cd}c/2a3/2e/2f/2g|  !
{ag}a3/2e/2{gf}g3/2B/2{gBd}B/2{e}A3/2{GAG}A3/2e/2|
{ag}a2{ef}e3/2a/2{cd}c/2a3/2{ef}e3/2f/2|
{gf}g2{Gdc}d/2g3/2{Bd}B/2g3/2{Gdc}d3/2e/2|  !
a/2g/2f{gf}g3/2e/2{gfg}f3/2d/2{g}e/2f/2g|
{ag}a3/2e/2{gf}g3/2B/2{gBd}B/2{e}A3/2{GAG}A/2|]
